X:1
T:Little Ones Like Me
T:George Blackburn Holsinger (1857-1908)
T:Little Ones Like Me
T:Public Domain
T:Public Domain
C:George Blackburn Holsinger (1857-1908)
Z:Public Domain
%%score ( 1 2 ) 3
L:1/8
M:2/4
K:G
V:1 treble 
V:2 treble 
V:3 bass 
V:1
 [GB]>[GB] [GB]G | [Gc][GB] [FA]2 | [FA]>[EG] [FA]G | [FA][FB] G2 | [GB]>[GB] [GB]G | %5
w: 1.~Je- sus when He|the sky, And|for sin- ners came|die, In His|cy passed not by|
w: 2.~Mo- thers then the|ior sought, In|the plac- es where|taught, Un- to|their child- ren brought,|
w: 3.~Did the Sav- ior|them nay? No,|He kind- ly bade|stay; Suf- fered|to turn a- way,|
w: 4.~Child- ren then should|Him now, Strive|His ho- ly will|do, Pray to|and praise Him, too,|
 [Gc][GB] [FA]2 | [FA]<G [FA][FB] | G3 z | [GB]<[GB] [GB][Ac] | [Bd]3 z | [GB]<[GB] [GB]G | %11
w: tle ones like|me. Lit- tle ones|me,|tle ones like me,|In|His mer- cy passed|
w: tle ones like|me. Lit- tle ones|me,|tle ones like me,|Un-|to them their child-|
w: tle ones like|me. Lit- tle ones|me.|tle ones like me,|Suf-|fered none to turn|
w: tle ones like|me. Lit- tle ones|me.|tle ones like me.|Pray|to Him, and praise|
 [FA]3 z | [GB]>[GB] [GB]G | [Gc][GB] [FA]2 | [FA]<G [FA][FB] | G3 z |] %16
w: by|Lit- tle ones like||||
w: brought,|Lit- tle ones like||||
w: way,|Lit- tle ones like||||
w: too,|Lit- tle ones like||||
V:2
 x3 G | x4 | x3 G | x2 G2 | x3 G | x4 | x/ G3/2 x2 | G3 x | x4 | x4 | x3 G | x4 | x3 G | x4 | %14
w: left||to|mer-|Lit-||like|Lit-|||not||me.||
w: Sav-||He|them|Lit-||like|Lit-|||ren||me.||
w: say||them|none|Lit-||like|Lit-|||a-||me.||
w: love||to|Him,|Lit-||like|Lit-|||Him,||me.||
 x/ G3/2 x2 | G3 x |] %16
w: ||
w: ||
w: ||
w: ||
V:3
 [G,D]>[G,D] [G,D][G,B,] | [G,E][G,D] [D,D]2 | [D,D]>[D,D] [D,D][D,B,] | [D,C][D,D] [G,B,]2 | %4
 [G,D]>[G,D] [G,D][G,B,] | [G,E][G,D] [D,D]2 | [D,D]<[D,B,] [D,C][D,D] | [G,B,]3 z | %8
 [G,D]<[G,D] [G,D][G,D] | [G,D]3 z | [G,D]<[G,D] [G,D][G,B,] | [D,D]3 z | [G,D]>[G,D] [G,D][G,B,] | %13
 [G,E][G,D] [D,D]2 | [D,D]<[D,B,] [D,C][D,D] | [G,B,]3 z |] %16

